synths/sAXS.svg

<svg width="42" height="42" viewBox="0 0 42 42" fill="none" xmlns="http://www.w3.org/2000/svg">
<g clip-path="url(#clip0_7277_57967)">
<mask id="mask0_7277_57967" style="mask-type:alpha" maskUnits="userSpaceOnUse" x="0" y="0" width="42" height="42">
<circle cx="21" cy="21" r="21" fill="url(#paint0_linear_7277_57967)"/>
</mask>
<g mask="url(#mask0_7277_57967)">
<circle cx="21" cy="21" r="21" fill="#34EDB3"/>
<circle cx="21" cy="21" r="18.2" fill="white"/>
</g>
<circle cx="21" cy="21" r="16.1" fill="#06061B"/>
<g clip-path="url(#clip1_7277_57967)">
<path fill-rule="evenodd" clip-rule="evenodd" d="M21 4.90002C29.8904 4.90002 37.1 12.1096 37.1 21C37.1 29.8904 29.8904 37.1 21 37.1C12.1096 37.1 4.90002 29.8904 4.90002 21C4.90002 12.1096 12.1096 4.90002 21 4.90002Z" fill="#0055D5"/>
<path fill-rule="evenodd" clip-rule="evenodd" d="M13.6584 15.5518C13.6584 15.5518 11.9261 14.1672 11.8069 17.5868C11.6878 20.2369 11.691 25.3825 12.9178 27.8136C13.4363 28.728 14.1286 28.4479 15.4166 27.5366C16.5371 26.7091 20.5911 22.9739 22.3074 21.3349C24.0236 19.6959 27.5044 14.9947 28.2289 18.189C28.5155 19.5317 28.8697 20.6716 28.5992 23.6501C28.5155 24.5678 28.1227 25.2633 26.3324 24.0204C24.98 23.151 23.6952 22.2172 23.6952 22.2172C23.6952 22.2172 23.4472 21.7728 22.8612 22.4941C22.4007 23.0705 22.1689 23.2122 22.9063 23.6501C23.6469 24.088 27.3917 26.6705 28.8279 27.073C30.0128 27.4175 30.689 27.4111 30.7244 25.083C30.718 23.2347 30.6117 17.9443 29.9388 15.6903C29.43 14.2863 28.683 13.6488 27.0697 15.2266C25.4565 16.8044 20.3689 21.7374 17.5868 23.9721C15.7418 25.3567 14.9529 26.6061 14.2574 24.2973C13.7679 22.5489 13.1336 17.1071 15.1364 18.1439C16.389 18.7428 17.0137 18.7396 16.5242 19.1163C16.0348 19.4899 14.6277 20.7811 14.6277 20.7811C14.6277 20.7811 14.193 21.1321 14.3958 21.892C14.5987 22.4233 14.5987 22.6873 15.6903 21.6601C16.7818 20.633 17.5868 19.8569 17.5868 19.8569C17.5868 19.8569 17.7607 19.5832 18.2791 20.0888C18.7976 20.5943 18.8813 20.736 18.8813 20.736C18.8813 20.736 19.0197 21.1127 19.5736 20.4591C20.1306 19.8054 20.4881 19.4061 19.4351 18.7943C18.3854 18.1761 13.6584 15.5518 13.6584 15.5518Z" fill="white"/>
</g>
</g>
<defs>
<linearGradient id="paint0_linear_7277_57967" x1="21" y1="0" x2="21" y2="61.4091" gradientUnits="userSpaceOnUse">
<stop stop-color="#08021E"/>
<stop offset="1" stop-color="#1F0777"/>
</linearGradient>
<clipPath id="clip0_7277_57967">
<rect width="42" height="42" fill="white"/>
</clipPath>
<clipPath id="clip1_7277_57967">
<rect width="32.2" height="32.2" fill="white" transform="translate(4.90002 4.90002)"/>
</clipPath>
</defs>
</svg>

<svg xmlns="http://www.w3.org/2000/svg" width="42" height="42" fill="none"><g clip-path="url(#a)"><mask id="c" width="42" height="42" x="0" y="0" maskUnits="userSpaceOnUse" style="mask-type:alpha"><circle cx="21" cy="21" r="21" fill="url(#b)"/></mask><g mask="url(#c)"><circle cx="21" cy="21" r="21" fill="#34EDB3"/><circle cx="21" cy="21" r="18.2" fill="#fff"/></g><circle cx="21" cy="21" r="16.1" fill="#06061B"/><g fill-rule="evenodd" clip-path="url(#d)" clip-rule="evenodd"><path fill="#0055D5" d="M21 4.9c8.89 0 16.1 7.21 16.1 16.1S29.89 37.1 21 37.1 4.9 29.89 4.9 21 12.11 4.9 21 4.9Z"/><path fill="#fff" d="M13.658 15.552s-1.732-1.385-1.851 2.035c-.12 2.65-.116 7.796 1.11 10.227.52.914 1.212.634 2.5-.277 1.12-.828 5.174-4.563 6.89-6.202 1.717-1.64 5.197-6.34 5.922-3.146.287 1.343.64 2.483.37 5.461-.084.918-.476 1.613-2.267.37-1.352-.869-2.637-1.803-2.637-1.803s-.248-.444-.834.277c-.46.576-.692.718.045 1.156.74.438 4.486 3.02 5.922 3.423 1.185.345 1.861.338 1.896-1.99-.006-1.848-.112-7.139-.785-9.393-.509-1.404-1.256-2.041-2.87-.463-1.613 1.577-6.7 6.51-9.482 8.745-1.845 1.385-2.634 2.634-3.33.325-.49-1.748-1.123-7.19.88-6.153 1.252.599 1.877.596 1.387.972-.49.374-1.896 1.665-1.896 1.665s-.435.351-.232 1.111c.203.531.203.795 1.294-.232 1.092-1.027 1.897-1.803 1.897-1.803s.174-.274.692.232c.519.505.602.647.602.647s.139.377.693-.277c.557-.654.914-1.053-.139-1.665-1.05-.618-5.777-3.242-5.777-3.242Z"/></g></g><defs><clipPath id="a"><path fill="#fff" d="M0 0h42v42H0z"/></clipPath><clipPath id="d"><path fill="#fff" d="M4.9 4.9h32.2v32.2H4.9z"/></clipPath><linearGradient id="b" x1="21" x2="21" y1="0" y2="61.409" gradientUnits="userSpaceOnUse"><stop stop-color="#08021E"/><stop offset="1" stop-color="#1F0777"/></linearGradient></defs></svg>
